internal/formats/costyle/testdata/costyle/sl-format/agfa-optima-200-v.3-faded-100%.costyle
<?xml version="1.0" encoding="utf-8"?>
<SL Engine="1100">
 <E K="ICCProfile" V="agfa-optima-200-v.3-faded-100%.icc"/>
 <E K="Name" V="Agfa Optima 200 V.3 Faded 100%"/>
 <E K="StyleSource" V="Styles"/>
 <E K="UUID" V="{8F35B6B9-75A4-4B5D-B8DF-DF4BD8D5FF8E}"/>
 <E K="HighlightRecovery" V="50.0"/>
 <E K="Midtone" V="0;0;0;0.0500000007450581"/>
</SL>