internal/formats/costyle/testdata/costyle/sl-format/agfa-optima-200-faded-100%.costyle
<?xml version="1.0" encoding="utf-8"?>
<SL Engine="1100">
 <E K="ICCProfile" V="agfa-optima-200-faded-100%.icc"/>
 <E K="Name" V="Agfa Optima 200 Faded 100%"/>
 <E K="StyleSource" V="Styles"/>
 <E K="UUID" V="{6CC8F1D2-1B79-4209-AC98-EA82C5B0BD59}"/>
 <E K="HighlightRecovery" V="50.0"/>
 <E K="Midtone" V="0;0;0;0.0500000007450581"/>
</SL>