internal/formats/costyle/testdata/costyle/sl-format/agfa-optima-200-v.3-100%.costyle
<?xml version="1.0" encoding="utf-8"?>
<SL Engine="1100">
 <E K="ICCProfile" V="agfa-optima-200-v.3-100%.icc"/>
 <E K="Name" V="Agfa Optima 200 V.3 100%"/>
 <E K="StyleSource" V="Styles"/>
 <E K="UUID" V="{579F00FC-FE96-49C3-BC73-29972991E2ED}"/>
 <E K="HighlightRecovery" V="50.0"/>
 <E K="Midtone" V="0;0;0;0.0500000007450581"/>
</SL>