internal/formats/costyle/testdata/costyle/sl-format/agfa-optima-100-100%.costyle
<?xml version="1.0" encoding="utf-8"?>
<SL Engine="1100">
 <E K="ICCProfile" V="agfa-optima-100-100%.icc"/>
 <E K="Name" V="Agfa Optima 100 100%"/>
 <E K="StyleSource" V="Styles"/>
 <E K="UUID" V="{C2238A8B-1793-4AEF-828C-03CAC9F68D46}"/>
 <E K="HighlightRecovery" V="50.0"/>
 <E K="Midtone" V="0;0;0;0.0500000007450581"/>
</SL>