internal/formats/costyle/testdata/costyle/sl-format/agfa-optima-200-v.2-100%.costyle
<?xml version="1.0" encoding="utf-8"?>
<SL Engine="1100">
 <E K="ICCProfile" V="agfa-optima-200-v.2-100%.icc"/>
 <E K="Name" V="Agfa Optima 200 V.2 100%"/>
 <E K="StyleSource" V="Styles"/>
 <E K="UUID" V="{47EF7CDC-4D41-42B6-A68D-F48C8570244E}"/>
 <E K="HighlightRecovery" V="50.0"/>
 <E K="Midtone" V="0;0;0;0.0500000007450581"/>
</SL>