internal/formats/costyle/testdata/costyle/sl-format/agfa-optima-200-100%.costyle
<?xml version="1.0" encoding="utf-8"?>
<SL Engine="1100">
 <E K="ICCProfile" V="agfa-optima-200-100%.icc"/>
 <E K="Name" V="Agfa Optima 200 100%"/>
 <E K="StyleSource" V="Styles"/>
 <E K="UUID" V="{B95419AE-4062-42E6-A44C-35E763264A67}"/>
 <E K="HighlightRecovery" V="50.0"/>
 <E K="Midtone" V="0;0;0;0.0500000007450581"/>
</SL>