internal/formats/costyle/testdata/costyle/sl-format/fuji-superia-400-faded-100%.costyle
<?xml version="1.0" encoding="utf-8"?>
<SL Engine="1100">
 <E K="ICCProfile" V="fuji-superia-400-faded-100%.icc"/>
 <E K="Name" V="Fuji Superia 400 Faded 100%"/>
 <E K="StyleSource" V="Styles"/>
 <E K="UUID" V="{10CCF458-A2C3-4A45-8D72-795B02CCE9C6}"/>
 <E K="HighlightRecovery" V="50.0"/>
 <E K="Midtone" V="0;0;0;0.0500000007450581"/>
</SL>