internal/formats/costyle/testdata/costyle/sl-format/fuji-superia-200-100%.costyle
<?xml version="1.0" encoding="utf-8"?>
<SL Engine="1100">
 <E K="ICCProfile" V="fuji-superia-200-100%.icc"/>
 <E K="Name" V="Fuji Superia 200 100%"/>
 <E K="StyleSource" V="Styles"/>
 <E K="UUID" V="{558699A5-0635-45B1-8741-DB6AC622E6A0}"/>
 <E K="HighlightRecovery" V="50.0"/>
 <E K="Midtone" V="0;0;0;0.0500000007450581"/>
</SL>