internal/formats/costyle/testdata/costyle/sl-format/fuji-pro-160ns-warm-100%.costyle
<?xml version="1.0" encoding="utf-8"?>
<SL Engine="1100">
 <E K="ICCProfile" V="fuji-pro-160ns-warm-100%.icc"/>
 <E K="Name" V="Fuji Pro 160Ns Warm 100%"/>
 <E K="StyleSource" V="Styles"/>
 <E K="UUID" V="{3260EC37-9DF1-4489-9261-C08488C9D935}"/>
 <E K="HighlightRecovery" V="50.0"/>
 <E K="Midtone" V="0;0;0;0.0500000007450581"/>
</SL>