internal/formats/costyle/testdata/costyle/sl-format/fuji-superia-800-100%.costyle
<?xml version="1.0" encoding="utf-8"?>
<SL Engine="1100">
 <E K="ICCProfile" V="fuji-superia-800-100%.icc"/>
 <E K="Name" V="Fuji Superia 800 100%"/>
 <E K="StyleSource" V="Styles"/>
 <E K="UUID" V="{533CD91D-E5F2-48B0-99EA-E447758E718D}"/>
 <E K="HighlightRecovery" V="50.0"/>
 <E K="Midtone" V="0;0;0;0.0500000007450581"/>
</SL>