internal/formats/costyle/testdata/costyle/sl-format/fuji-superia-200-v.3-100%.costyle
<?xml version="1.0" encoding="utf-8"?>
<SL Engine="1100">
 <E K="ICCProfile" V="fuji-superia-200-v.3-100%.icc"/>
 <E K="Name" V="Fuji Superia 200 V.3 100%"/>
 <E K="StyleSource" V="Styles"/>
 <E K="UUID" V="{19BBFA41-42AE-4444-BA7C-25E23D5A86D4}"/>
 <E K="HighlightRecovery" V="50.0"/>
 <E K="Midtone" V="0;0;0;0.0500000007450581"/>
</SL>