internal/formats/costyle/testdata/costyle/sl-format/fuji-superia-200-v.2-warm-100%.costyle
<?xml version="1.0" encoding="utf-8"?>
<SL Engine="1100">
 <E K="ICCProfile" V="fuji-superia-200-v.2-warm-100%.icc"/>
 <E K="Name" V="Fuji Superia 200 V.2 Warm 100%"/>
 <E K="StyleSource" V="Styles"/>
 <E K="UUID" V="{A0C99E6C-E7FD-4C9E-A540-A2C64A131F0F}"/>
 <E K="HighlightRecovery" V="50.0"/>
 <E K="Midtone" V="0;0;0;0.0500000007450581"/>
</SL>