internal/formats/costyle/testdata/costyle/sl-format/fuji-natura-1600-plus-100%.costyle
<?xml version="1.0" encoding="utf-8"?>
<SL Engine="1100">
 <E K="ICCProfile" V="fuji-natura-1600-plus-100%.icc"/>
 <E K="Name" V="Fuji Natura 1600 Plus 100%"/>
 <E K="StyleSource" V="Styles"/>
 <E K="UUID" V="{77DF7548-1963-40A7-90E3-01701FDF06BC}"/>
 <E K="HighlightRecovery" V="50.0"/>
 <E K="Midtone" V="0;0;0;0.0500000007450581"/>
</SL>