internal/formats/costyle/testdata/costyle/sl-format/kodak-portra-160-III-100%.costyle
<?xml version="1.0" encoding="utf-8"?>
<SL Engine="1100">
 <E K="ICCProfile" V="kodak-portra-160-III-100%.icc"/>
 <E K="Name" V="Kodak Portra 160 Iii 100%"/>
 <E K="StyleSource" V="Styles"/>
 <E K="UUID" V="{03848434-E278-427C-A63D-8F204147313A}"/>
 <E K="HighlightRecovery" V="50.0"/>
 <E K="Midtone" V="0;0;0;0.0500000007450581"/>
</SL>