internal/formats/costyle/testdata/costyle/sl-format/kodak-ektar-100-v.3-100%.costyle
<?xml version="1.0" encoding="utf-8"?>
<SL Engine="1100">
 <E K="ICCProfile" V="kodak-ektar-100-v.3-100%.icc"/>
 <E K="Name" V="Kodak Ektar 100 V.3 100%"/>
 <E K="StyleSource" V="Styles"/>
 <E K="UUID" V="{54F6F5FB-92B3-404D-879F-2FDB599B6113}"/>
 <E K="HighlightRecovery" V="50.0"/>
 <E K="Midtone" V="0;0;0;0.0500000007450581"/>
</SL>