internal/formats/costyle/testdata/costyle/sl-format/kodak-portra-160-v.2-100%.costyle
<?xml version="1.0" encoding="utf-8"?>
<SL Engine="1100">
 <E K="ICCProfile" V="kodak-portra-160-v.2-100%.icc"/>
 <E K="Name" V="Kodak Portra 160 V.2 100%"/>
 <E K="StyleSource" V="Styles"/>
 <E K="UUID" V="{9FD0C974-6EED-4257-8DBB-E0CAF4A1958D}"/>
 <E K="HighlightRecovery" V="50.0"/>
 <E K="Midtone" V="0;0;0;0.0500000007450581"/>
</SL>