internal/formats/costyle/testdata/costyle/sl-format/kodak-ultramax-400-v.3-100%.costyle
<?xml version="1.0" encoding="utf-8"?>
<SL Engine="1100">
 <E K="ICCProfile" V="kodak-ultramax-400-v.3-100%.icc"/>
 <E K="Name" V="Kodak Ultramax 400 V.3 100%"/>
 <E K="StyleSource" V="Styles"/>
 <E K="UUID" V="{0AFF3284-DE36-454E-ACF0-265C0AC0678D}"/>
 <E K="HighlightRecovery" V="50.0"/>
 <E K="Midtone" V="0;0;0;0.0500000007450581"/>
</SL>