internal/formats/costyle/testdata/costyle/sl-format/kodak-portra-400-warm-100%.costyle
<?xml version="1.0" encoding="utf-8"?>
<SL Engine="1100">
 <E K="ICCProfile" V="kodak-portra-400-warm-100%.icc"/>
 <E K="Name" V="Kodak Portra 400 Warm 100%"/>
 <E K="StyleSource" V="Styles"/>
 <E K="UUID" V="{6CFBAC46-B0C0-482B-9385-2541A9F433D4}"/>
 <E K="HighlightRecovery" V="50.0"/>
 <E K="Midtone" V="0;0;0;0.0500000007450581"/>
</SL>