internal/formats/costyle/testdata/costyle/sl-format/kodak-gold-800-faded-100%.costyle
<?xml version="1.0" encoding="utf-8"?>
<SL Engine="1100">
 <E K="ICCProfile" V="kodak-gold-800-faded-100%.icc"/>
 <E K="Name" V="Kodak Gold 800 Faded 100%"/>
 <E K="StyleSource" V="Styles"/>
 <E K="UUID" V="{807B240D-6DC7-441E-BC71-06800251EDD9}"/>
 <E K="HighlightRecovery" V="50.0"/>
 <E K="Midtone" V="0;0;0;0.0500000007450581"/>
</SL>