internal/formats/costyle/testdata/costyle/sl-format/kodak-portra-160-v.5-hc-100%.costyle
<?xml version="1.0" encoding="utf-8"?>
<SL Engine="1100">
 <E K="ICCProfile" V="kodak-portra-160-v.5-hc-100%.icc"/>
 <E K="Name" V="Kodak Portra 160 V.5 Hc 100%"/>
 <E K="StyleSource" V="Styles"/>
 <E K="UUID" V="{6DB88515-B6DA-4DDB-ABA4-68E33E760C9D}"/>
 <E K="HighlightRecovery" V="50.0"/>
 <E K="Midtone" V="0;0;0;0.0500000007450581"/>
</SL>