internal/formats/costyle/testdata/costyle/sl-format/kodak-ektar-100-v.4-100%.costyle
<?xml version="1.0" encoding="utf-8"?>
<SL Engine="1100">
 <E K="ICCProfile" V="kodak-ektar-100-v.4-100%.icc"/>
 <E K="Name" V="Kodak Ektar 100 V.4 100%"/>
 <E K="StyleSource" V="Styles"/>
 <E K="UUID" V="{1771B6A2-C009-4F26-8B41-B5CC87817C41}"/>
 <E K="HighlightRecovery" V="50.0"/>
 <E K="Midtone" V="0;0;0;0.0500000007450581"/>
</SL>