internal/formats/costyle/testdata/costyle/sl-format/kodak-portra-800-v.2-100%.costyle
<?xml version="1.0" encoding="utf-8"?>
<SL Engine="1100">
 <E K="ICCProfile" V="kodak-portra-800-v.2-100%.icc"/>
 <E K="Name" V="Kodak Portra 800 V.2 100%"/>
 <E K="StyleSource" V="Styles"/>
 <E K="UUID" V="{098E56A1-F2FB-4F5A-8F4E-55FBED5D411A}"/>
 <E K="HighlightRecovery" V="50.0"/>
 <E K="Midtone" V="0;0;0;0.0500000007450581"/>
</SL>