internal/formats/costyle/testdata/costyle/sl-format/kodak-portra-800-v.3-100%.costyle
<?xml version="1.0" encoding="utf-8"?>
<SL Engine="1100">
 <E K="ICCProfile" V="kodak-portra-800-v.3-100%.icc"/>
 <E K="Name" V="Kodak Portra 800 V.3 100%"/>
 <E K="StyleSource" V="Styles"/>
 <E K="UUID" V="{CDE573AA-FCAF-49E3-87E5-E33B3CCB8DFD}"/>
 <E K="HighlightRecovery" V="50.0"/>
 <E K="Midtone" V="0;0;0;0.0500000007450581"/>
</SL>