internal/formats/costyle/testdata/costyle/sl-format/kodak-ektar-100-cool-fade-100%.costyle
<?xml version="1.0" encoding="utf-8"?>
<SL Engine="1100">
 <E K="ICCProfile" V="kodak-ektar-100-cool-fade-100%.icc"/>
 <E K="Name" V="Kodak Ektar 100 Cool Fade 100%"/>
 <E K="StyleSource" V="Styles"/>
 <E K="UUID" V="{BC58D6D1-E57B-4EE9-81AE-17DDA8189240}"/>
 <E K="HighlightRecovery" V="50.0"/>
 <E K="Midtone" V="0;0;0;0.0500000007450581"/>
</SL>