internal/formats/costyle/testdata/costyle/sl-format/kodak-portra-160-II-100%.costyle
<?xml version="1.0" encoding="utf-8"?>
<SL Engine="1100">
 <E K="ICCProfile" V="kodak-portra-160-II-100%.icc"/>
 <E K="Name" V="Kodak Portra 160 Ii 100%"/>
 <E K="StyleSource" V="Styles"/>
 <E K="UUID" V="{D103DC0A-4730-48AC-B301-E714AF23998B}"/>
 <E K="HighlightRecovery" V="50.0"/>
 <E K="Midtone" V="0;0;0;0.0500000007450581"/>
</SL>