internal/formats/costyle/testdata/costyle/sl-format/kodak-gold-200-100%.costyle
<?xml version="1.0" encoding="utf-8"?>
<SL Engine="1100">
 <E K="ICCProfile" V="kodak-gold-200-100%.icc"/>
 <E K="Name" V="Kodak Gold 200 100%"/>
 <E K="StyleSource" V="Styles"/>
 <E K="UUID" V="{938C4974-7EFE-4FBE-9649-A09E935AD130}"/>
 <E K="HighlightRecovery" V="50.0"/>
 <E K="Midtone" V="0;0;0;0.0500000007450581"/>
</SL>