internal/formats/costyle/testdata/costyle/sl-format/kodak-gold-200-v.4-100%.costyle
<?xml version="1.0" encoding="utf-8"?>
<SL Engine="1100">
 <E K="ICCProfile" V="kodak-gold-200-v.4-100%.icc"/>
 <E K="Name" V="Kodak Gold 200 V.4 100%"/>
 <E K="StyleSource" V="Styles"/>
 <E K="UUID" V="{2FAD33AA-14FD-4874-9901-D3980249E999}"/>
 <E K="HighlightRecovery" V="50.0"/>
 <E K="Midtone" V="0;0;0;0.0500000007450581"/>
</SL>