internal/formats/costyle/testdata/costyle/sl-format/kodak-ektar-100-v.2-cool-fade-100%.costyle
<?xml version="1.0" encoding="utf-8"?>
<SL Engine="1100">
 <E K="ICCProfile" V="kodak-ektar-100-v.2-cool-fade-100%.icc"/>
 <E K="Name" V="Kodak Ektar 100 V.2 Cool Fade 100%"/>
 <E K="StyleSource" V="Styles"/>
 <E K="UUID" V="{E24C8DC7-17AD-4A97-89C1-0E5B3D08FAC4}"/>
 <E K="HighlightRecovery" V="50.0"/>
 <E K="Midtone" V="0;0;0;0.0500000007450581"/>
</SL>