internal/formats/costyle/testdata/costyle/sl-format/kodak-gold-200-v.2-100%.costyle
<?xml version="1.0" encoding="utf-8"?>
<SL Engine="1100">
 <E K="ICCProfile" V="kodak-gold-200-v.2-100%.icc"/>
 <E K="Name" V="Kodak Gold 200 V.2 100%"/>
 <E K="StyleSource" V="Styles"/>
 <E K="UUID" V="{7A03EBE8-8AC4-4C53-B222-62C5C05A615F}"/>
 <E K="HighlightRecovery" V="50.0"/>
 <E K="Midtone" V="0;0;0;0.0500000007450581"/>
</SL>