internal/formats/costyle/testdata/costyle/sl-format/kodak-gold-800-soft-red-cast-100%.costyle
<?xml version="1.0" encoding="utf-8"?>
<SL Engine="1100">
 <E K="ICCProfile" V="kodak-gold-800-soft-red-cast-100%.icc"/>
 <E K="Name" V="Kodak Gold 800 Soft Red Cast 100%"/>
 <E K="StyleSource" V="Styles"/>
 <E K="UUID" V="{C5FFA185-80D5-48A8-9CF1-DAE8407BDD5F}"/>
 <E K="HighlightRecovery" V="50.0"/>
 <E K="Midtone" V="0;0;0;0.0500000007450581"/>
</SL>