internal/formats/costyle/testdata/costyle/sl-format/kodak-portra-400-100%.costyle
<?xml version="1.0" encoding="utf-8"?>
<SL Engine="1100">
 <E K="ICCProfile" V="kodak-portra-400-100%.icc"/>
 <E K="Name" V="Kodak Portra 400 100%"/>
 <E K="StyleSource" V="Styles"/>
 <E K="UUID" V="{3007EDF4-2AD7-463E-9553-BA37061F8F1A}"/>
 <E K="HighlightRecovery" V="50.0"/>
 <E K="Midtone" V="0;0;0;0.0500000007450581"/>
</SL>