internal/formats/costyle/testdata/costyle/sl-format/kodak-portra-800-100%.costyle
<?xml version="1.0" encoding="utf-8"?>
<SL Engine="1100">
 <E K="ICCProfile" V="kodak-portra-800-100%.icc"/>
 <E K="Name" V="Kodak Portra 800 100%"/>
 <E K="StyleSource" V="Styles"/>
 <E K="UUID" V="{BFE3140E-468B-441B-8A38-D4C15C57E438}"/>
 <E K="HighlightRecovery" V="50.0"/>
 <E K="Midtone" V="0;0;0;0.0500000007450581"/>
</SL>