internal/formats/costyle/testdata/costyle/sl-format/kodak-portra-400-normalised-100%.costyle
<?xml version="1.0" encoding="utf-8"?>
<SL Engine="1100">
 <E K="ICCProfile" V="kodak-portra-400-normalised-100%.icc"/>
 <E K="Name" V="Kodak Portra 400 Normalised 100%"/>
 <E K="StyleSource" V="Styles"/>
 <E K="UUID" V="{2621D9CD-892D-4F38-B158-863BC252E373}"/>
 <E K="HighlightRecovery" V="50.0"/>
 <E K="Midtone" V="0;0;0;0.0500000007450581"/>
</SL>