internal/formats/costyle/testdata/costyle/sl-format/kodak-ektar-100-warm-fade-100%.costyle
<?xml version="1.0" encoding="utf-8"?>
<SL Engine="1100">
 <E K="ICCProfile" V="kodak-ektar-100-warm-fade-100%.icc"/>
 <E K="Name" V="Kodak Ektar 100 Warm Fade 100%"/>
 <E K="StyleSource" V="Styles"/>
 <E K="UUID" V="{5C50B261-A78B-4A52-85F5-64209C5CCCF2}"/>
 <E K="HighlightRecovery" V="50.0"/>
 <E K="Midtone" V="0;0;0;0.0500000007450581"/>
</SL>