internal/formats/costyle/testdata/costyle/sl-format/rollei-digibase-cn-200-warm-100%.costyle
<?xml version="1.0" encoding="utf-8"?>
<SL Engine="1100">
 <E K="ICCProfile" V="rollei-digibase-cn-200-warm-100%.icc"/>
 <E K="Name" V="Rollei Digibase Cn 200 Warm 100%"/>
 <E K="StyleSource" V="Styles"/>
 <E K="UUID" V="{598B72DB-9D6F-460C-982F-76C4D4C29F65}"/>
 <E K="HighlightRecovery" V="50.0"/>
 <E K="Midtone" V="0;0;0;0.0500000007450581"/>
</SL>