internal/formats/costyle/testdata/costyle/sl-format/rollei-digibase-cn-200-v.2-100%.costyle
<?xml version="1.0" encoding="utf-8"?>
<SL Engine="1100">
 <E K="ICCProfile" V="rollei-digibase-cn-200-v.2-100%.icc"/>
 <E K="Name" V="Rollei Digibase Cn 200 V.2 100%"/>
 <E K="StyleSource" V="Styles"/>
 <E K="UUID" V="{BF554C4C-258E-4723-B0A8-2AF9FCFAC760}"/>
 <E K="HighlightRecovery" V="50.0"/>
 <E K="Midtone" V="0;0;0;0.0500000007450581"/>
</SL>